markets/W.svg

<svg width="42" height="43" viewBox="0 0 42 43" fill="none" xmlns="http://www.w3.org/2000/svg">
<path d="M21 42.056C32.598 42.056 42 32.654 42 21.056C42 9.45807 32.598 0.0560455 21 0.0560455C9.40202 0.0560455 0 9.45807 0 21.056C0 32.654 9.40202 42.056 21 42.056Z" fill="white"/>
<path d="M31.6225 28.1529C30.5156 30.0788 28.468 31.263 26.2491 31.263H22.6604V19.1604L17.4806 28.1558C16.3739 30.0815 14.3263 31.2658 12.1072 31.2658H8.5434V13.4052H15.7126V25.4773L22.6604 13.4107V13.4052H29.8267V25.5272L37.3556 12.4451C37.6599 11.9138 37.6544 11.2553 37.3251 10.7379C33.8526 5.2538 27.6962 1.63741 20.7014 1.74254C10.0348 1.90856 1.63158 10.4944 1.68692 21.161C1.74227 31.7804 10.3696 40.3718 21.0002 40.3718C31.6308 40.3718 40.3134 31.725 40.3134 21.0586C40.3134 19.3402 40.0864 17.6746 39.6632 16.0863C39.5358 15.6049 38.8939 15.5163 38.645 15.9452L31.6196 28.1502L31.6225 28.1529Z" fill="black"/>
</svg>

<svg width="42" height="43" fill="none" viewBox="0 0 42 43" xmlns="http://www.w3.org/2000/svg">
  <path fill="#fff" d="M21 42.056c11.598 0 21-9.402 21-21s-9.402-21-21-21-21 9.402-21 21 9.402 21 21 21"/>
  <path fill="#000" d="M31.623 28.153a6.2 6.2 0 0 1-5.374 3.11H22.66V19.16l-5.18 8.996a6.2 6.2 0 0 1-5.373 3.11H8.543v-17.86h7.17v12.071l6.947-12.066v-.006h7.167v12.122l7.529-13.082a1.65 1.65 0 0 0-.03-1.707c-3.473-5.484-9.63-9.1-16.625-8.995-10.666.166-19.07 8.751-19.014 19.418.055 10.62 8.683 19.21 19.313 19.21s19.313-8.646 19.313-19.312c0-1.719-.227-3.384-.65-4.973a.556.556 0 0 0-1.018-.14L31.62 28.15z"/>
</svg>
